src/images/icon/icon_label_limits.svg

<svg height="20" viewBox="0 0 20 20" width="20" xmlns="http://www.w3.org/2000/svg"><g fill="none" transform="translate(3.5 2.073444)"><path d="m6.7358255.016624.15559785.02955377.07116789.02153835 4.80383216 1.88614399c.6689717.16586603 1.1564835.75250291 1.2253205 1.45164314l.0082561.15142541v3.14459895c0 3.89844119-2.2151004 7.39996139-5.77349453 9.12918309-.22995568.1128595-.47823057.1692893-.72650547.1692893l.00059786-4.1908649c.34075238.0000581.61025981-.2795902.61025981-.624554v-3.35382861c.82692-.30412574 1.32355515-1.18093465 1.17730804-2.07853625-.13764435-.8448015-.80727851-1.47796243-1.61700416-1.55383395l-.17116155-.00761078v-4.19077151l.11811767.004156z" fill="#7d4cff"/><path d="m6.50050185 0-.00050185 4.19077151c-.87731286.0051639-1.62412662.66384313-1.77037373 1.56144473-.14624712.8976016.35038804 1.77441051 1.17730804 2.07853625v3.35382861c0 .3421187.26508027.6199949.59374897.6245552l-.00018171 4.1908637c-.24844208 0-.49689651-.0563538-.72700704-.1692893-3.4676395-1.6986956-5.656132-5.04555-5.76891441-8.82206194l-.00458012-.30712115v-3.14459895c.0078161-.71363934.45125084-1.33679444 1.09308944-1.5611978l.14048719-.04187075 4.87500002-1.90768234c.1289519-.0308244.26044017-.04617777.3919252-.04617777z" fill="#bba2ff"/></g></svg>

<?xml version="1.0" encoding="UTF-8"?>
<svg width="20px" height="20px" viewBox="0 0 20 20" version="1.1" xmlns="http://www.w3.org/2000/svg" xmlns:xlink="http://www.w3.org/1999/xlink">
    
    <g id="Dashboard" stroke="none" stroke-width="1" fill="none" fill-rule="evenodd">
        <g id="00-Icon、DropDown" transform="translate(-619.000000, -330.000000)" fill-rule="nonzero">
            <g id="编组-8" transform="translate(619.000000, 330.000000)">
                <g id="权限" transform="translate(3.500000, 2.073444)">
                    <path d="M6.7358255,0.0166239965 L6.89142335,0.046177768 L6.96259124,0.0677161164 L11.7664234,1.95386011 C12.4353951,2.11972614 12.9229069,2.70636302 12.9917439,3.40550325 L13,3.55692866 L13,6.70152761 C13,10.5999688 10.7848996,14.101489 7.22650547,15.8307107 C6.99654979,15.9435702 6.7482749,16 6.5,16 L6.50059786,11.8091351 C6.84135024,11.8091932 7.11085767,11.5295449 7.11085767,11.1845811 L7.11085767,7.83075249 C7.93777767,7.52662675 8.43441282,6.64981784 8.28816571,5.75221624 C8.15052136,4.90741474 7.4808872,4.27425381 6.67116155,4.19838229 L6.5,4.19077151 L6.5,0 L6.61811767,0.00415599912 L6.61811767,0.00415599912 L6.7358255,0.0166239965 Z" id="路径" fill="#7D4CFF"></path>
                    <g id="形状结合" fill="#BBA2FF">
                        <path d="M6.50050185,0 L6.5,4.19077151 C5.62268714,4.19593541 4.87587338,4.85461464 4.72962627,5.75221624 C4.58337915,6.64981784 5.08001431,7.52662675 5.90693431,7.83075249 L5.90693431,11.1845811 C5.90693431,11.5266998 6.17201458,11.804576 6.50068328,11.8091363 L6.50050157,16 C6.25205949,16 6.00360506,15.9436462 5.77349453,15.8307107 C2.30585503,14.1320151 0.117362526,10.7851607 0.00458012255,7.00864876 L0,6.70152761 L0,3.55692866 C0.0078160967,2.84328932 0.451250843,2.22013422 1.09308944,1.99573086 L1.23357663,1.95386011 L6.10857665,0.046177768 C6.23752855,0.0153533725 6.36901682,0 6.50050185,0 Z" id="路径"></path>
                    </g>
                </g>
            </g>
        </g>
    </g>
</svg>
